svg/u2122.svg

<svg viewBox="0 0 128 128" xmlns="http://www.w3.org/2000/svg">
  <path d="M3.93,39.37c0,0-0.06,3.25-0.02,4.42c0.04,1.45,0.83,2.36,2.59,2.36s46.52,0.03,47.67,0.03 c1.44,0,1.99-1.07,2.06-2.02s0.06-4.4,0.06-4.4l-28.09-1.9L3.93,39.37z" fill="#464C4F"/>
  <path d="M22.61,89.12c0,0,0.06,6.63,0.06,7.44c0,0.81,0.74,1.62,2.02,1.75c1.28,0.13,9.9,0,10.85,0 c0.94,0,2.09-0.47,2.09-2.16c0-1.68-0.07-6.33-0.07-6.33l-9.37-6.33L22.61,89.12z" fill="#464C4F"/>
  <path d="M60.04,90.46c0,0,0,4.95,0,5.82s0.07,1.89,2.09,1.89c2.02,0,9.2,0.06,10.28,0.06s1.75-0.88,1.75-1.89 c0-1.01,0.05-5.55,0.06-6.53c0-0.34-7.7-3.3-7.7-3.3L60.04,90.46z" fill="#464C4F"/>
  <path d="M84.39,92.18c0,0,1.46,4.11,2,4.86c0.54,0.74,1.96,1.01,5.84,0.96c3.91-0.05,5.01-0.49,5.35-1.37 c0.31-0.8,1.58-4.31,1.58-4.31l-6.6-7.68L84.39,92.18z" fill="#464C4F"/>
  <path d="M111,90.83c0,0,0,3.44,0,4.38s0.61,2.29,2.22,2.36s8.35,0.07,9.3,0.07c1.62,0,1.79-1.18,1.82-2.29 c0.02-1.01,0.07-4.18,0.07-4.18l-8.02-7.88L111,90.83z" fill="#464C4F"/>
  <path d="M3.93,41.87c-0.04-0.13-0.1-12.09,0.14-12.26c0.25-0.16,51.98,0.16,52.26,0.23 c0.14,0.03-0.07,8.21-0.06,10.14c0,1.41-0.06,1.91-2.58,2.01c-1.83,0.07-15.94,0.09-15.94,0.09s-0.13,46.3-0.19,47.74 C37.49,91.26,36.45,93,33.83,93s-7.23,0.04-8.36,0c-1.36-0.05-2.79-0.87-2.87-3.48c-0.09-2.61,0.09-47.61,0.09-47.61 S3.97,42,3.93,41.87z" fill="#616266"/>
  <path d="M63.36,30.11c-1.05,0-3.42,0.11-3.4,2.79c0.02,2,0.09,56.53,0.09,57.66c0,1.13,1.13,2.96,3.92,3.05 c2.79,0.09,5.05,0.09,6.71-0.09c1.66-0.17,3.32-1.76,3.53-3.36c0.21-1.6,0.3-22.68,0.3-22.68s9.34,23.26,9.88,24.7 c0.38,1.04,4.5,0.99,7.72,0.99s6.72,0.16,7.04-0.86c0.31-0.99,11.34-28.93,11.34-28.93s0.42,26.59,0.52,27.45 c0.09,0.86,3.23,2.43,7.32,2.34c4.09-0.09,6.09-2,6.09-2s-0.08-55.83-0.08-57.92s-1.57-2.96-3.05-2.96c-1.48,0-14.32-0.18-14.63,0 c-0.32,0.18-14.6,38.09-14.6,38.09S78.63,30.3,78.17,30.13C77.7,29.96,65.28,30.11,63.36,30.11z" fill="#616266"/>
  <path d="M7.15,32.74c-1.12,1.04-1.65,5.38-0.11,6.04s2.8-0.16,5.22-1.65s3.56-2.21,3.41-3.68 C15.44,31.42,8.58,31.42,7.15,32.74z" fill="#9A9A9A"/>
  <path d="M64.75,41.89c2.07,0.05,3.01-2.76,4.13-3.88c1.13-1.13,3.69-2,2.88-4.63 c-0.57-1.86-6.51-2.32-8.39,0.63C61.5,36.94,62.06,41.83,64.75,41.89z" fill="#9A9A9A"/>
  <path d="M108.59,34.29c-1.68,1.83-3.63,6.83-1.06,7.7c2.57,0.88,4.2-3.01,5.38-3.88 c1.19-0.88,3.84-2.82,2.32-4.76C113.84,31.6,110.65,32.04,108.59,34.29z" fill="#9A9A9A"/>
</svg>

<svg viewBox="0 0 128 128" xmlns="http://www.w3.org/2000/svg">
  <defs/>
  <path d="M3.93,39.37 C3.93,39.37 3.87,42.62 3.91,43.79 C3.95,45.24 4.74,46.15 6.5,46.15 C8.26,46.15 53.02,46.18 54.17,46.18 C55.61,46.18 56.16,45.11 56.23,44.16 C56.3,43.21 56.29,39.76 56.29,39.76 L28.2,37.86 L3.93,39.37 Z" fill="#464C4F"/>
  <path d="M22.61,89.12 C22.61,89.12 22.67,95.75 22.67,96.56 C22.67,97.37 23.41,98.18 24.69,98.31 C25.97,98.44 34.59,98.31 35.54,98.31 C36.48,98.31 37.63,97.84 37.63,96.15 C37.63,94.47 37.56,89.82 37.56,89.82 L28.19,83.49 L22.61,89.12 Z" fill="#464C4F"/>
  <path d="M60.04,90.46 C60.04,90.46 60.04,95.41 60.04,96.28 C60.04,97.15 60.11,98.17 62.13,98.17 C64.15,98.17 71.33,98.23 72.41,98.23 C73.49,98.23 74.16,97.35 74.16,96.34 C74.16,95.33 74.21,90.79 74.22,89.81 C74.22,89.47 66.52,86.51 66.52,86.51 L60.04,90.46 Z" fill="#464C4F"/>
  <path d="M84.39,92.18 C84.39,92.18 85.85,96.29 86.39,97.04 C86.93,97.78 88.35,98.05 92.23,98 C96.14,97.95 97.24,97.51 97.58,96.63 C97.89,95.83 99.16,92.32 99.16,92.32 L92.56,84.64 L84.39,92.18 Z" fill="#464C4F"/>
  <path d="M111,90.83 C111,90.83 111,94.27 111,95.21 C111,96.15 111.61,97.5 113.22,97.57 C114.83,97.64 121.57,97.64 122.52,97.64 C124.14,97.64 124.31,96.46 124.34,95.35 C124.36,94.34 124.41,91.17 124.41,91.17 L116.39,83.29 L111,90.83 Z" fill="#464C4F"/>
  <path d="M3.93,41.87 C3.89,41.74 3.83,29.78 4.07,29.61 C4.32,29.45 56.05,29.77 56.33,29.84 C56.47,29.87 56.26,38.05 56.27,39.98 C56.27,41.39 56.21,41.89 53.69,41.99 C51.86,42.06 37.75,42.08 37.75,42.08 C37.75,42.08 37.62,88.38 37.56,89.82 C37.49,91.26 36.45,93 33.83,93 C31.21,93 26.6,93.04 25.47,93 C24.11,92.95 22.68,92.13 22.6,89.52 C22.51,86.91 22.69,41.91 22.69,41.91 C22.69,41.91 3.97,42 3.93,41.87 Z" fill="#616266"/>
  <path d="M63.36,30.11 C62.31,30.11 59.94,30.22 59.96,32.9 C59.98,34.9 60.05,89.43 60.05,90.56 C60.05,91.69 61.18,93.52 63.97,93.61 C66.76,93.7 69.02,93.7 70.68,93.52 C72.34,93.35 74,91.76 74.21,90.16 C74.42,88.56 74.51,67.48 74.51,67.48 C74.51,67.48 83.85,90.74 84.39,92.18 C84.77,93.22 88.89,93.17 92.11,93.17 C95.33,93.17 98.83,93.33 99.15,92.31 C99.46,91.32 110.49,63.38 110.49,63.38 C110.49,63.38 110.91,89.97 111.01,90.83 C111.1,91.69 114.24,93.26 118.33,93.17 C122.42,93.08 124.42,91.17 124.42,91.17 C124.42,91.17 124.34,35.34 124.34,33.25 C124.34,31.16 122.77,30.29 121.29,30.29 C119.81,30.29 106.97,30.11 106.66,30.29 C106.34,30.47 92.06,68.38 92.06,68.38 C92.06,68.38 78.63,30.3 78.17,30.13 C77.7,29.96 65.28,30.11 63.36,30.11 Z" fill="#616266"/>
  <path d="M7.15,32.74 C6.03,33.78 5.5,38.12 7.04,38.78 C8.58,39.44 9.84,38.62 12.26,37.13 C14.68,35.64 15.82,34.92 15.67,33.45 C15.44,31.42 8.58,31.42 7.15,32.74 Z" fill="#9A9A9A"/>
  <path d="M64.75,41.89 C66.82,41.94 67.76,39.13 68.88,38.01 C70.01,36.88 72.57,36.01 71.76,33.38 C71.19,31.52 65.25,31.06 63.37,34.01 C61.5,36.94 62.06,41.83 64.75,41.89 Z" fill="#9A9A9A"/>
  <path d="M108.59,34.29 C106.91,36.12 104.96,41.12 107.53,41.99 C110.1,42.87 111.73,38.98 112.91,38.11 C114.1,37.23 116.75,35.29 115.23,33.35 C113.84,31.6 110.65,32.04 108.59,34.29 Z" fill="#9A9A9A"/>
</svg>
